Numix-GalliumOS/16/status/battery-030-charging.svg

<?xml version="1.0" encoding="UTF-8" standalone="no"?>
<svg
   xmlns:dc="http://purl.org/dc/elements/1.1/"
   xmlns:cc="http://creativecommons.org/ns#"
   xmlns:rdf="http://www.w3.org/1999/02/22-rdf-syntax-ns#"
   xmlns:svg="http://www.w3.org/2000/svg"
   xmlns="http://www.w3.org/2000/svg"
   xmlns:sodipodi="http://sodipodi.sourceforge.net/DTD/sodipodi-0.dtd"
   xmlns:inkscape="http://www.inkscape.org/namespaces/inkscape"
   width="16"
   viewBox="0 0 16 16"
   height="16"
   id="svg2"
   version="1.1"
   inkscape:version="0.91 r"
   sodipodi:docname="gpm-battery-030-charging.svg">
  <metadata
     id="metadata14">
    <rdf:RDF>
      <cc:Work
         rdf:about="">
        <dc:format>image/svg+xml</dc:format>
        <dc:type
           rdf:resource="http://purl.org/dc/dcmitype/StillImage" />
      </cc:Work>
    </rdf:RDF>
  </metadata>
  <defs
     id="defs12" />
  <sodipodi:namedview
     pagecolor="#ffffff"
     bordercolor="#666666"
     borderopacity="1"
     objecttolerance="10"
     gridtolerance="10"
     guidetolerance="10"
     inkscape:pageopacity="0"
     inkscape:pageshadow="2"
     inkscape:window-width="1366"
     inkscape:window-height="747"
     id="namedview10"
     showgrid="true"
     inkscape:zoom="17.096617"
     inkscape:cx="-0.85047606"
     inkscape:cy="5.8557247"
     inkscape:window-x="0"
     inkscape:window-y="21"
     inkscape:window-maximized="1"
     inkscape:current-layer="svg2">
    <inkscape:grid
       type="xygrid"
       id="grid2984"
       empspacing="5"
       visible="true"
       enabled="true"
       snapvisiblegridlinesonly="true" />
  </sodipodi:namedview>
  <path
     style="opacity:0.4;fill:#ececec;fill-opacity:1"
     d="M 6 2 L 6 4 L 4 4 L 4 14 L 12 14 L 12 4 L 10 4 L 10 2 L 6 2 z M 9.3339844 4.2949219 L 8.6660156 8.1171875 L 10.666016 8.1171875 L 6.6660156 13.470703 L 7.3339844 9.6464844 L 5.3339844 9.6464844 L 9.3339844 4.2949219 z "
     id="path6" />
  <path
     style="opacity:1;fill:#ececec;fill-opacity:1"
     d="M 4,10.400391 4,14 l 8,0 0,-3.599609 -3.0390625,0 -2.2949219,3.070312 0.5371094,-3.070312 -3.203125,0 z"
     id="path6-1"
     inkscape:connector-curvature="0" />
</svg>

<svg xmlns="http://www.w3.org/2000/svg" viewBox="0 0 16 16">
 <path d="m 6 2 l 0 2 l -2 0 l 0 10 l 8 0 l 0 -10 l -2 0 l 0 -2 l -4 0 z m 3.334 2.295 l -0.668 3.822 l 2 0 l -4 5.354 l 0.668 -3.824 l -2 0 l 4 -5.352 z" style="fill:#ececec;opacity:0.4;fill-opacity:1"/>
 <path d="m 4 10.4 0 3.6 l 8 0 0 -3.6 -3.039 0 -2.295 3.07 0.537 -3.07 -3.203 0 z" style="fill:#ececec;opacity:1;fill-opacity:1"/>
</svg>
